X:1
T:Brennan on the Moor
M:4/4
L:1/4
K:A
 E| A,3/2 A,/2 A, B,| C E E C| B,3/2 B,/2 A, G,| A,2 z| E| A3/2 A/2 B c|\
 A E z E| F A A F| E2 z| E| A3/2 A/2B/2 B/2 c| A E2 E/2E/2| F A A F|\
 E2 z| E| F F/2F/2 F E| F G A3/2 F/2| E E E F| C2 C B,| B, A, A,3/2 A,/2|\
 A,2 z2| C/2 E3/2 E3/2 C/2| E2 F- G| A3/2 A/2- c B| A F z A,| B,/2 A,3/2 A,3/2 A,/2|\
 A,3||
